X:80
T:She Was One of the Early Birds, and I Was One of the Worms
Z:Jack Campin, http://www.campin.me.uk/
F:Jack Campin's Nine-Note Tunebook
% last edit 03-02-2013
C:T.W. Connor 
G:Victorian music hall song
M:3/4
L:1/4
Q:3/4=72
P:ABCBC
K:F
P:A
  "C7"    c2        B |"F"     A  G       F|"D7"d2       c   |"Gm"B2  G|\
  "C7"    c2        c |        B  A       G|"F" F  E/F/  A/c/|   .F2  ||
P:B
z|"F"     A2       ^G |        A2         c|"C7"G2      ^F   |    G2  c|\
  "F"     F  E      F |"Bbm"   G2         A|"F" C3-          |    C2
z|"C7"    c2        G |       ^F2         G|"F" c  A "A7"G   |"Dm"F2  E|\
  "G7"    E  D     ^C |        D  A       G|"C7"G3-          |    G2
z|"G7"    A2        A |"A7"    G  G       G|"Dm"F2       F   |"A" E3   |\
  "Bb"    D ^C      D |        F  G "Bb7"^G|"A" A3-          |    A2
z|"F"     A =B      c |"C"     G3          |"F" A =B     c   |"C" G2  G|\
  "D7"    A ^G      A |"G7"   =B  A       G|"C" c3-          |"C7"c2  ||
P:C
z|"F"     c =B      d |"F"     c  A       F|"Bb"D2      _D   |"F" C3   |\
  "F"({=B}c) z ({=B}c)|"F"({=B}c) z       F|"C7"E3-          |"C" E2
B|"Gm"    d3          |"Gm"    G  B       d|"F" c2       A   |"Dm"G2  F|\
  "G7"    D2        A |"G7"    A  G       F|"C7"G3-          |"C7"G2
A|"F"     F3          |"G7"    G3          |"C7"E3-          |"C7"E D C|\
  "F"     F  G      A |"Bb"    B2         d|"C7"G3-          |"C7"G2
B|"F"     c2        B |"F"     A  G       F|"Bb"d2       c   |"Gm"B2  G|\
  "C7"    c2        c |"C7"    B  A       G|"F" F3-          |"F" F2  |]

